markets/YFI.svg

<svg width="42" height="42" viewBox="0 0 42 42" fill="none" xmlns="http://www.w3.org/2000/svg">
<path fill-rule="evenodd" clip-rule="evenodd" d="M21 0C32.5962 0 42 9.4038 42 21C42 32.5962 32.5962 42 21 42C9.4038 42 0 32.5962 0 21C0 9.4038 9.4038 0 21 0Z" fill="#006AE3"/>
<path d="M29.82 18.2028L23.9442 19.761L22.6338 13.6626L24.381 13.2678L25.0698 16.1574C25.0698 16.1574 26.6574 13.5534 24.5406 10.857C23.2932 9.47101 22.701 9.41221 21.3024 9.19381C20.0718 9.01741 17.2116 9.43321 16.359 12.7722C15.9978 14.9226 16.4052 16.5144 19.1772 18.5976L19.0218 20.916C19.0218 20.916 15.9264 18.7362 15.1284 17.2074C14.511 15.9978 13.4526 13.608 15.3636 10.2816C16.3926 8.61841 18.4212 7.02241 21.9954 7.19041C23.793 7.26601 28.182 9.46261 27.5016 14.595C27.384 15.5568 26.8842 16.8378 26.8842 16.8378L29.295 16.3002L29.82 18.2028Z" fill="white"/>
<path d="M26.4642 31.8738C25.389 33.5076 23.3184 35.049 19.7526 34.7886C17.955 34.6668 13.629 32.3526 14.4438 27.2412C14.5866 26.2836 15.12 25.0194 15.12 25.0194L12.6966 25.4898L12.222 23.5788L18.1398 22.176L19.2906 28.308L17.5308 28.6566L16.9176 25.746C16.9176 25.746 15.2628 28.3038 17.304 31.059C18.5136 32.4786 19.1016 32.55 20.5002 32.8062C21.7224 33.0162 24.5952 32.6718 25.536 29.358C25.9518 27.2202 25.5864 25.6158 22.8732 23.457L23.0916 21.1428C23.0916 21.1428 26.1282 23.4024 26.8842 24.9522C27.4638 26.1828 28.4592 28.602 26.4642 31.8738V31.8738Z" fill="white"/>
</svg>

<svg xmlns="http://www.w3.org/2000/svg" width="42" height="42" fill="none"><path fill="#006AE3" fill-rule="evenodd" d="M21 0c11.596 0 21 9.404 21 21s-9.404 21-21 21S0 32.596 0 21 9.404 0 21 0Z" clip-rule="evenodd"/><path fill="#fff" d="m29.82 18.203-5.876 1.558-1.31-6.098 1.747-.395.689 2.89s1.587-2.605-.53-5.301c-1.247-1.386-1.839-1.445-3.238-1.663-1.23-.177-4.09.24-4.943 3.578-.361 2.15.046 3.742 2.818 5.826l-.155 2.318s-3.096-2.18-3.894-3.709c-.617-1.21-1.675-3.599.236-6.925 1.029-1.664 3.057-3.26 6.631-3.092 1.798.076 6.187 2.273 5.507 7.405-.118.962-.618 2.243-.618 2.243l2.411-.538.525 1.903ZM26.464 31.874c-1.075 1.634-3.146 3.175-6.711 2.915-1.798-.122-6.124-2.436-5.31-7.548.144-.957.677-2.222.677-2.222l-2.423.47-.475-1.91 5.918-1.403 1.15 6.132-1.76.349-.612-2.911s-1.655 2.558.386 5.313c1.21 1.42 1.798 1.491 3.196 1.747 1.222.21 4.095-.134 5.036-3.448.416-2.138.05-3.742-2.663-5.901l.219-2.314s3.036 2.26 3.792 3.81c.58 1.23 1.575 3.649-.42 6.92Z"/></svg>
